X: 1049
T: Felix the Wrestler
R:double jig
N:"collected by F. O'Neill"
B:O'Neill's 1049
Z:Transcribed by henrik.norbeck@mailbox.swipnet.se
M:6/8
L:1/8
K:A
e|c2A AcA|ecA AB=c|B2=G GBG|dBG Bcd|
c2A AcA|ecA ABc|ded Bcd|ecA A2:|
d|c2a aga|efe edc|B2=g gfg|ded dcB|
[1 c2a aga|efe edc|ded Bcd|ecA A2:|
[2 cBA dcB|edc fed|cBA Bcd|ecA A2||


